shared/images/iconfont/84-kb-iconfont-reacji-sheep-16.svg

<?xml version="1.0" encoding="UTF-8"?>
<svg width="16px" height="16px" viewBox="0 0 16 16" version="1.1" xmlns="http://www.w3.org/2000/svg" xmlns:xlink="http://www.w3.org/1999/xlink">
    <!-- Generator: sketchtool 54.1 (76490) - https://sketchapp.com -->
    <title>BC63BB5B-4E70-4EDB-9603-BA1EC866931A</title>
    <desc>Created with sketchtool.</desc>
    <g id="Symbols" stroke="none" stroke-width="1" fill="none" fill-rule="evenodd">
        <g id="84-kb-iconfont-reacji-sheep-16">
            <g>
                <polygon id="icon-area" opacity="0" points="0 0 16 0 16 16 0 16"></polygon>
                <path d="M6.65219978,6.65569335 C6.28357706,6.65569335 5.98474931,6.95452111 5.98474931,7.32314383 C5.98474931,7.69176654 6.28357706,7.9905943 6.65219978,7.9905943 C7.0208225,7.9905943 7.31965026,7.69176654 7.31965026,7.32314383 C7.31965026,6.95452111 7.0208225,6.65569335 6.65219978,6.65569335 Z M14.9974177,10.8974774 C14.9440503,9.84055108 14.0701857,9 13,9 C12.2984964,9 11.6813474,9.36116495 11.3243531,9.90769473 L11.3243531,8.2709235 L11.4511687,8.2709235 C12.4857169,8.2709235 13.3267045,7.8504297 13.3267045,7.34984184 C13.3267045,6.84925399 12.4857169,6.4421092 11.4511687,6.4421092 L11.1975375,6.4421092 C10.7901018,5.00664329 9.47926904,4.01609174 7.98710073,4.01609174 C6.49493243,4.01609174 5.18409968,5.00664329 4.77666395,6.4421092 L4.52303277,6.4421092 C3.48848453,6.4421092 2.64749693,6.84257948 2.64749693,7.34984184 C2.64749693,7.85710421 3.48848453,8.26424899 4.52303277,8.26424899 L4.64984836,8.26424899 L4.64984836,9.99294573 C4.64984836,11.4674366 5.84515938,12.6627476 7.31965026,12.6627476 L8.65455121,12.6627476 C8.78302937,12.6627476 8.90938791,12.6536724 9.03302077,12.6361281 C9.01133264,12.7541205 9,12.8757368 9,13 C9,14.1045695 9.8954305,15 11,15 C11,15.3642871 11.0973943,15.7058266 11.2675644,16 L8.65455121,16 L8.65455121,13.9976486 L7.31965026,13.9976486 L7.31965026,16 L4.64984836,16 L4.64984836,13.8908565 C4.41778353,13.8657329 4.1918987,13.8002264 3.98239788,13.6972959 C3.5335936,13.4459758 3.20423755,13.0252655 3.06799073,12.5292575 C3.01931249,12.3329826 3.00352443,12.1299932 3.0212692,11.9285521 L2.82103406,11.9285521 C2.12841441,11.9376127 1.47810247,11.5961362 1.09233733,11.0208195 C0.819183976,10.600159 0.739021162,10.0827445 0.872078669,9.59914994 C0.927228484,9.40122066 1.01522026,9.2139561 1.13238435,9.04516605 C0.445103417,8.74856486 0,8.07169399 0,7.32314383 C0,6.57459366 0.445103417,5.89772279 1.13238435,5.6011216 C1.01522026,5.43233155 0.927228484,5.24506699 0.872078669,5.04713771 C0.739021162,4.56354317 0.819183976,4.04612865 1.09233733,3.62546819 C1.51860831,2.99081114 2.260983,2.64402712 3.0212692,2.72441005 C3.00350966,2.52739124 3.01930771,2.32878724 3.06799073,2.13705363 C3.21197687,1.62400937 3.56246685,1.19375271 4.03579392,0.948991789 C4.73773498,0.591165257 5.5798971,0.650219309 6.22503148,1.1025054 C6.56507721,0.42654233 7.25712368,0 8.01379875,0 C8.77047383,0 9.46252029,0.42654233 9.80256602,1.1025054 C10.4477004,0.650219309 11.2898625,0.591165257 11.9918036,0.948991789 C12.45498,1.19940703 12.7951608,1.62885511 12.9329088,2.13705363 C12.9815918,2.32878724 12.9973898,2.52739124 12.9796303,2.72441005 C13.7399165,2.64402712 14.4822912,2.99081114 14.9085622,3.62546819 C15.1817155,4.04612865 15.2618783,4.56354317 15.1288208,5.04713771 C15.073671,5.24506699 14.9856792,5.43233155 14.8685151,5.6011216 C15.551746,5.90181598 15.9938055,6.57667596 15.9965064,7.32314383 C15.9907317,8.0561 15.561446,8.71954156 14.8952131,9.02514254 C15.0123772,9.19393259 15.100369,9.38119714 15.1555188,9.57912643 C15.2778738,10.0238226 15.2199299,10.497117 14.9974177,10.8974774 Z M9.32200168,6.65569335 C9.6906244,6.65569335 9.98945216,6.95452111 9.98945216,7.32314383 C9.98945216,7.69176654 9.6906244,7.9905943 9.32200168,7.9905943 C8.95337896,7.9905943 8.65455121,7.69176654 8.65455121,7.32314383 C8.65455121,6.95452111 8.95337896,6.65569335 9.32200168,6.65569335 Z M14,12 L15,12 C15.5522847,12 16,12.4477153 16,13 C16,13.5522847 15.5522847,14 15,14 L14,14 L14,15 C14,15.5522847 13.5522847,16 13,16 C12.4477153,16 12,15.5522847 12,15 L12,14 L11,14 C10.4477153,14 10,13.5522847 10,13 C10,12.4477153 10.4477153,12 11,12 L12,12 L12,11 C12,10.4477153 12.4477153,10 13,10 C13.5522847,10 14,10.4477153 14,11 L14,12 Z" id="sheep" fill="#000000"></path>
            </g>
        </g>
    </g>
</svg>

<svg xmlns="http://www.w3.org/2000/svg" width="16" height="16" viewBox="0 0 16 16">
    <path fill="#000" fill-rule="nonzero" d="M6.652 6.656a.667.667 0 1 0 0 1.335.667.667 0 0 0 0-1.335zm8.345 4.241a2 2 0 0 0-3.673-.99V8.272h.127c1.035 0 1.876-.42 1.876-.921 0-.5-.841-.908-1.876-.908h-.253a3.337 3.337 0 0 0-6.421 0h-.254c-1.035 0-1.876.4-1.876.908 0 .507.841.914 1.876.914h.127v1.729a2.67 2.67 0 0 0 2.67 2.67h1.335c.128 0 .254-.01.378-.027A2 2 0 0 0 11 15c0 .364.097.706.268 1H8.655v-2.002H7.32V16H4.65v-2.11a2.002 2.002 0 0 1-.668-.193 1.922 1.922 0 0 1-.914-1.168 1.829 1.829 0 0 1-.047-.6h-.2a2.05 2.05 0 0 1-1.729-.908 1.755 1.755 0 0 1-.22-1.422c.055-.198.143-.385.26-.554a1.876 1.876 0 0 1 0-3.444 1.835 1.835 0 0 1-.26-.554 1.755 1.755 0 0 1 .22-1.422 2.062 2.062 0 0 1 1.93-.9 1.749 1.749 0 0 1 .046-.588c.144-.513.494-.943.968-1.188a2.13 2.13 0 0 1 2.189.154 2.002 2.002 0 0 1 3.578 0 2.13 2.13 0 0 1 2.189-.154c.463.25.803.68.94 1.188.05.192.065.39.048.587.76-.08 1.502.267 1.929.901.273.421.353.939.22 1.422a1.835 1.835 0 0 1-.26.554c.683.3 1.125.976 1.128 1.722a1.889 1.889 0 0 1-1.102 1.702c.117.169.205.356.26.554.123.445.065.918-.158 1.318zM9.322 6.656a.667.667 0 1 1 0 1.335.667.667 0 0 1 0-1.335zM14 12h1a1 1 0 0 1 0 2h-1v1a1 1 0 0 1-2 0v-1h-1a1 1 0 0 1 0-2h1v-1a1 1 0 0 1 2 0v1z"/>
</svg>
